blockchains/celo/logo.svg

<svg fill="none" height="250" viewBox="0 0 250 250" width="250" xmlns="http://www.w3.org/2000/svg" xmlns:xlink="http://www.w3.org/1999/xlink"><clipPath id="a"><path d="m0 0h250v250h-250z"/></clipPath><g clip-path="url(#a)"><path d="m98.6842 223.685c39.9738 0 72.3688-32.394 72.3688-72.368s-32.395-72.3684-72.3688-72.3684c-39.9737 0-72.3684 32.3944-72.3684 72.3684s32.3947 72.368 72.3684 72.368zm0 26.316c-54.5 0-98.6842-44.184-98.6842-98.684s44.1842-98.6842 98.6842-98.6842c54.4998 0 98.6838 44.1842 98.6838 98.6842s-44.184 98.684-98.6838 98.684z" fill="#fbcc5c"/><path d="m151.316 171.053c39.973 0 72.368-32.395 72.368-72.3688 0-39.9737-32.395-72.3684-72.368-72.3684-39.974 0-72.3686 32.3947-72.3686 72.3684 0 39.9738 32.3946 72.3688 72.3686 72.3688zm0 26.315c-54.5002 0-98.6844-44.184-98.6844-98.6838 0-54.5 44.1842-98.6842 98.6844-98.6842 54.5 0 98.684 44.1842 98.684 98.6842 0 54.4998-44.184 98.6838-98.684 98.6838z" fill="#35d07f"/><path d="m154.579 197.37c6.842-8.29 11.737-18 14.342-28.448 10.421-2.605 20.132-7.5 28.447-14.342-.368 12.079-2.973 23.974-7.684 35.132-11.131 4.684-23.026 7.289-35.105 7.658zm-73.5-116.2898c-10.4211 2.6052-20.1316 7.5-28.4474 14.3421.3684-12.079 2.9737-23.9737 7.6842-35.1053 11.1316-4.6842 23.0526-7.2895 35.1053-7.6842-6.8421 8.2895-11.7369 18-14.3421 28.4474z" fill="#5ea33b"/></g></svg>

<svg width="250" height="250" viewBox="0 0 250 250" fill="none" xmlns="http://www.w3.org/2000/svg">
<g clip-path="url(#clip0_50_11409)">
<path d="M98.6842 223.685C138.658 223.685 171.053 191.291 171.053 151.317C171.053 111.343 138.658 78.9486 98.6842 78.9486C58.7105 78.9486 26.3158 111.343 26.3158 151.317C26.3158 191.291 58.7105 223.685 98.6842 223.685ZM98.6842 250.001C44.1842 250.001 0 205.817 0 151.317C0 96.817 44.1842 52.6328 98.6842 52.6328C153.184 52.6328 197.368 96.817 197.368 151.317C197.368 205.817 153.184 250.001 98.6842 250.001Z" fill="#FBCC5C"/>
<path d="M151.316 171.053C191.289 171.053 223.684 138.658 223.684 98.6842C223.684 58.7105 191.289 26.3158 151.316 26.3158C111.342 26.3158 78.9474 58.7105 78.9474 98.6842C78.9474 138.658 111.342 171.053 151.316 171.053ZM151.316 197.368C96.8158 197.368 52.6316 153.184 52.6316 98.6842C52.6316 44.1842 96.8158 0 151.316 0C205.816 0 250 44.1842 250 98.6842C250 153.184 205.816 197.368 151.316 197.368Z" fill="#35D07F"/>
<path d="M154.579 197.37C161.421 189.08 166.316 179.37 168.921 168.922C179.342 166.317 189.053 161.422 197.368 154.58C197 166.659 194.395 178.554 189.684 189.712C178.553 194.396 166.658 197.001 154.579 197.37ZM81.079 81.0802C70.6579 83.6854 60.9474 88.5802 52.6316 95.4223C53 83.3433 55.6053 71.4486 60.3158 60.317C71.4474 55.6328 83.3684 53.0275 95.4211 52.6328C88.579 60.9223 83.6842 70.6328 81.079 81.0802Z" fill="#5EA33B"/>
</g>
<defs>
<clipPath id="clip0_50_11409">
<rect width="250" height="250" fill="white"/>
</clipPath>
</defs>
</svg>
